X:1
T:Title
%%score ( 1 2 ) 3
L:1/8
Q:1/4=100
M:4/4
K:Eb
V:1 treble nm="Grand Piano, Soprano"
V:2 treble 
V:3 bass nm="Choir Pad, Make Me White as Snow"
V:1
 [Ec]2 [_DB]2 [CA][CE][=B,=D][CE] | [EG]4 [_DF]2 z2 | [E_d]2 [Ec]2 [DB][DF][DG][DF] | E6 z2 | %4
w: By~Frank~A.~Simpkins * * * * *||||
 [Ec]2 [_DB]2 [CA][CE][=B,=D][CE] | [EG]4 [_DF]2 z2 | E2- [CE-]2 [CE][Ec][_DB][Ec] | [CA]6 z2 | %8
w: ||||
 c-[Ec-][Ec-][Ec-] [Ec]E[_DF][FA] | c-[Ec-][Ec-][Ec-] [Ec]2 z2 | e-[Ge-][Ge-][Ge-] eBc_d | %11
w: |||
 c-[Ac-][Ac-][Ac-] [Ac]2 z2 | [Ec]2 [_DB]2 [CA][CE][=B,=D][CE] | [EG]4 [_DF]2 z2 | %14
w: |||
 C2 C2 C[Ec][_DB][Ec] | [CA]8 |] %16
w: ||
V:2
 x8 | x8 | x8 | x8 | x8 | x8 | C2 z2 z4 | x8 | .E2 z2 z4 | .E2 z2 z4 | .G2 z2 G2 G2 | .A2 z2 z4 | %12
 x8 | x8 | E6 z2 | x8 |] %16
V:3
 [A,,A,]2 [A,,E,]2 [A,,E,][A,,A,][A,,A,][A,,A,] | [_D,A,]4 [D,A,]2 z2 | %2
 [E,G,]2 [E,A,]2 [B,,A,][B,,A,][B,,B,][B,,A,] | [E,G,]6 z2 | %4
 [A,,A,]2 [A,,E,]2 [A,,E,][A,,A,][A,,A,][A,,A,] | [_D,A,]4 [D,A,]2 z2 | %6
 [E,A,]2 [E,A,]2 [E,A,][E,A,][E,G,][E,G,] | [A,,A,]6 z2 | %8
 [A,,A,][A,,A,][A,,A,][A,,A,] [A,,A,]2 [A,,A,]2 | [A,,A,][A,,A,][C,A,][E,A,] A,2 z2 | %10
 [E,B,][E,B,][E,B,][E,B,] [E,B,]2 [E,E]2 | [A,E][A,E][A,E][A,E] [A,E]2 z2 | %12
 [A,,A,]2 [A,,E,]2 [A,,E,][A,,A,][A,,A,][A,,A,] | [_D,A,]4 [D,A,]2 z2 | %14
 [E,A,]2 [E,A,]2 [E,A,][E,A,][E,G,]E, | [A,,E,]8 |] %16

